mobile/apps/auth/assets/custom-icons/icons/fidelity.svg

<svg width="49" height="48" viewBox="0 0 49 48" fill="none" xmlns="http://www.w3.org/2000/svg">
<g clip-path="url(#clip0_933_28141)">
<path d="M24.9434 48C38.1983 48 48.9434 37.2548 48.9434 24C48.9434 10.7452 38.1983 0 24.9434 0C11.6886 0 0.94342 10.7452 0.94342 24C0.94342 37.2548 11.6886 48 24.9434 48Z" fill="white"/>
<path d="M22.5996 27.795H29.2838L31.2396 29.0631H22.3059L18.3011 41.4571C16.0258 40.544 13.9543 39.1883 12.2067 37.4686C10.4592 35.7489 9.07035 33.6995 8.12074 31.4391C7.17113 29.1787 6.67963 26.7523 6.67472 24.3005C6.66982 21.8487 7.15161 19.4204 8.09217 17.1562C9.94318 12.7412 13.423 9.20846 17.8095 7.29094C22.196 5.37342 27.1523 5.2184 31.6501 6.85805C36.1478 8.4977 39.8416 11.8061 41.9649 16.0968C44.0882 20.3874 44.478 25.3309 43.0534 29.9013C41.9853 33.3728 39.9048 36.4463 37.0784 38.7276L32.1423 30.5031L39.0128 34.3359C39.0128 34.3359 39.0701 34.2929 39.0128 34.2499L30.0576 26.484L41.685 28.2607C41.728 28.2607 41.7423 28.2607 41.7423 28.2607L41.6707 28.1962L30.6952 24.3204L42.1005 21.5622C42.1005 21.5622 42.1005 21.5622 42.1005 21.5049L30.4229 22.2714L39.5787 15.3365C39.5787 15.3365 39.5214 15.2792 39.4999 15.3365L29.2122 20.552L34.879 10.5222C34.879 10.5222 34.879 10.4649 34.8432 10.5222L27.4355 19.1837L28.8683 7.721C28.8683 7.721 28.8253 7.67801 28.7895 7.721L25.3722 18.8326L22.3847 7.36995C22.3847 7.36995 22.3202 7.33413 22.2987 7.36995L23.1226 19.2625L16.0802 10.0923C16.0802 10.0923 16.0373 10.0923 16.0158 10.0923L21.3459 20.244L11.2731 14.749C11.2731 14.749 11.2158 14.749 11.2158 14.792L20.1781 22.1496L8.71545 20.9389C8.67247 20.9389 8.67247 20.9962 8.71545 21.0177L19.8343 24.2631L8.79426 27.5013C8.78949 27.506 8.78571 27.5115 8.78312 27.5177C8.78054 27.5238 8.77921 27.5304 8.77921 27.5371C8.77921 27.5438 8.78054 27.5504 8.78312 27.5565C8.78571 27.5627 8.78949 27.5683 8.79426 27.5729L20.1781 26.2834L11.2373 33.8416C11.2373 33.8416 11.1943 33.8846 11.2373 33.9061L11.3519 33.8631L18.5161 30.1162L20.1925 27.444H22.1053L20.7799 26.5055L25.2074 19.3986L22.5996 27.795Z" fill="#368727"/>
</g>
<defs>
<clipPath id="clip0_933_28141">
<rect width="49" height="48" fill="white"/>
</clipPath>
</defs>
</svg>

<svg xmlns="http://www.w3.org/2000/svg" fill="none" viewBox="0 0 49 48"><g clip-path="url(#a)"><path fill="#fff" d="M24.943 48c13.255 0 24-10.745 24-24s-10.745-24-24-24c-13.254 0-24 10.745-24 24s10.746 24 24 24Z"/><path fill="#368727" d="M22.6 27.795h6.684l1.956 1.268h-8.934L18.3 41.457a18.527 18.527 0 0 1-10.209-24.3A18.627 18.627 0 0 1 43.053 29.9a18.233 18.233 0 0 1-5.975 8.827l-4.936-8.225 6.87 3.833s.058-.043 0-.086l-8.954-7.766 11.627 1.777h.057l-.071-.065-10.976-3.876L42.1 21.562v-.057l-11.677.766 9.156-6.935s-.058-.057-.08 0l-10.287 5.216 5.667-10.03s0-.057-.036 0l-7.408 8.662L28.869 7.72s-.043-.043-.078 0l-3.418 11.112L22.385 7.37s-.065-.036-.086 0l.824 11.893-7.043-9.17h-.064l5.33 10.151-10.073-5.495s-.057 0-.057.043l8.962 7.358-11.463-1.211c-.043 0-.043.057 0 .079l11.12 3.245-11.04 3.238a.05.05 0 0 0 0 .072l11.383-1.29-8.94 7.559s-.044.043 0 .064l.114-.043 7.164-3.747 1.677-2.672h1.912l-1.325-.938 4.427-7.107-2.607 8.396Z"/></g><defs><clipPath id="a"><path fill="#fff" d="M0 0h49v48H0z"/></clipPath></defs></svg>
